X:106
T:Maiden's Prayer
C:Traditional
N:TablEdited by Kim Davis
L:1/8
Q:1/4=120
M:4/4
K:A
"A"A,4 zC EA | [c8A8] | (3BcB Ac B2 AG | "D"EF z2 z4 | "E"d4 d3e | e4 ec B2 | 
ec e2 (3fgf e2 | "A"Bc zd cB A2 | A,4 zC EA | Bc zd cB A2 | B3c (3BcB A=G | "D"EF z2 z2 (3agf | 
"A"ec e2 "D"fa (3zgf | "A"ec e2 "D"a2 (3zgf | "A"ec e2 "E"c'3e | "A"a8 | 


